assets/img/discord.svg

<svg xmlns="http://www.w3.org/2000/svg" width="39" height="39" viewBox="0 0 39 39">
  <g fill="none" fill-rule="evenodd">
    <rect width="39" height="39" fill="#1EAB89" rx="2"/>
    <path fill="#20252E" fill-rule="nonzero" d="M19.8134545,1.8845183 C17.8229091,0.284006335 14.674,0.0132469633 14.5401818,0.00174753047 C14.3300455,-0.0160243202 14.1303636,0.10315162 14.0446364,0.295505768 C14.0383636,0.308050604 13.9693636,0.465906454 13.8930455,0.711576155 C15.2092727,0.933201586 16.8265909,1.38063406 18.2902273,2.28908925 C18.5244091,2.43440027 18.5965455,2.74279415 18.4512273,2.97800982 C18.3571364,3.13063865 18.193,3.21427089 18.0257273,3.21427089 C17.9358182,3.21427089 17.8448636,3.19022662 17.7622727,3.13900188 C15.2469091,1.57926063 12.1042727,1.50085541 11.5,1.50085541 C10.8957273,1.50085541 7.75204545,1.57926063 5.23877273,3.13900188 C5.00354545,3.28535829 4.69618182,3.21218008 4.54981818,2.97800982 C4.40345455,2.74279415 4.47663636,2.43544567 4.71081818,2.28908925 C6.17445455,1.38167947 7.79072727,0.933201586 9.108,0.711576155 C9.03063636,0.464861051 8.96163636,0.308050604 8.95640909,0.295505768 C8.86963636,0.10315162 8.671,-0.0181151262 8.45981818,0.00279293345 C8.32704545,0.0132469633 5.17813636,0.284006335 3.16040909,1.90751716 C2.10659091,2.88078734 0,8.57614278 0,13.4999908 C0,13.5867593 0.023,13.6724823 0.0658636364,13.7477513 C1.52009091,16.3016708 5.48654545,16.9707287 6.39086364,17 C6.39609091,17 6.40131818,17 6.40654545,17 C6.5665,17 6.71704545,16.9236856 6.81113636,16.7940556 L7.72590909,15.5374812 C5.25968182,14.8997854 3.99990909,13.8177933 3.92672727,13.7540237 C3.71972727,13.5710782 3.69986364,13.2553665 3.88281818,13.0483767 C4.06577273,12.8413869 4.38045455,12.8215243 4.58745455,13.0034244 C4.61777273,13.0306049 6.93763636,14.9990987 11.5,14.9990987 C16.0707273,14.9990987 18.3905909,13.0222417 18.4135909,13.002379 C18.6205909,12.8225697 18.9363182,12.8413869 19.1182273,13.0494221 C19.3001364,13.2564119 19.2802727,13.5710782 19.0743182,13.7529783 C19.0011364,13.8177933 17.7413636,14.89874 15.2751364,15.5364358 L16.1899091,16.7930102 C16.284,16.9226402 16.4345455,16.9989546 16.5945,16.9989546 C16.5997273,16.9989546 16.6049545,16.9989546 16.6101818,16.9989546 C17.5145,16.9707287 21.4809545,16.3016708 22.9351818,13.7467059 C22.977,13.6714369 23,13.5867593 23,13.4999908 C23,8.57614278 20.8934091,2.88078734 19.8134545,1.8845183 Z M8.24968182,11.5001349 C7.28368182,11.5001349 6.49959091,10.6042246 6.49959091,9.50027901 C6.49959091,8.39633347 7.28263636,7.50042311 8.24968182,7.50042311 C9.21672727,7.50042311 9.99977273,8.39633347 9.99977273,9.50027901 C9.99977273,10.6042246 9.21672727,11.5001349 8.24968182,11.5001349 Z M14.7503182,11.5001349 C13.7843182,11.5001349 13.0002273,10.6042246 13.0002273,9.50027901 C13.0002273,8.39633347 13.7832727,7.50042311 14.7503182,7.50042311 C15.7163182,7.50042311 16.5004091,8.39633347 16.5004091,9.50027901 C16.5004091,10.6042246 15.7163182,11.5001349 14.7503182,11.5001349 Z" transform="translate(8 11)"/>
  </g>
</svg>

<?xml version="1.0" encoding="UTF-8" standalone="no"?>
<svg width="39" xmlns="http://www.w3.org/2000/svg" viewBox="0 0 39 39" height="39">
 <g fill-rule="evenodd">
  <rect width="39" fill="#1EAB89" rx="2" height="39"/>
  <path fill-rule="nonzero" d="m19.813 1.8845c-1.99-1.6005-5.139-1.8713-5.273-1.8828-0.21-0.017724-0.41 0.10145-0.495 0.29381-0.007 0.01254-0.076 0.1704-0.152 0.41607 1.316 0.22162 2.934 0.66902 4.397 1.5775 0.234 0.1453 0.307 0.4537 0.161 0.6889-0.094 0.1526-0.258 0.2363-0.425 0.2363-0.09 0-0.181-0.0241-0.264-0.0753-2.515-1.5597-5.658-1.6381-6.262-1.6381s-3.748 0.0784-6.2612 1.6381c-0.2353 0.1464-0.5426 0.0732-0.689-0.161-0.1463-0.2352-0.0732-0.5426 0.161-0.6889 1.4637-0.9074 3.0799-1.3559 4.3972-1.5775-0.0774-0.24674-0.1464-0.40355-0.1516-0.41609-0.0868-0.19236-0.2854-0.31362-0.4966-0.29272-0.1328 0.010457-3.2817 0.28122-5.2994 1.9047-1.0538 0.9733-3.1604 6.6686-3.1604 11.592 0 0.087 0.023 0.172 0.065864 0.248 1.4542 2.554 5.4206 3.223 6.325 3.252h0.0156c0.16 0 0.3105-0.076 0.4046-0.206l0.9148-1.257c-2.4662-0.637-3.726-1.719-3.7992-1.783-0.207-0.183-0.2268-0.499-0.0439-0.706 0.183-0.207 0.4977-0.226 0.7047-0.045 0.0303 0.028 2.3501 1.996 6.9125 1.996 4.571 0 6.891-1.977 6.914-1.997 0.207-0.179 0.522-0.161 0.704 0.047 0.182 0.207 0.162 0.522-0.044 0.704-0.073 0.065-1.333 1.146-3.799 1.783l0.915 1.257c0.094 0.13 0.245 0.206 0.404 0.206h0.016c0.904-0.028 4.871-0.697 6.325-3.252 0.042-0.076 0.065-0.16 0.065-0.247 0-4.9239-2.107-10.619-3.187-11.616zm-11.563 9.6155c-0.966 0-1.7501-0.896-1.7501-1.9997 0-1.104 0.783-1.9999 1.7501-1.9999 0.967 0 1.7501 0.8959 1.7501 1.9999 0 1.1037-0.7831 1.9997-1.7501 1.9997zm6.5003 0c-0.966 0-1.75-0.896-1.75-1.9997 0-1.104 0.783-1.9999 1.75-1.9999 0.966 0 1.75 0.8959 1.75 1.9999 0 1.1037-0.784 1.9997-1.75 1.9997z" transform="translate(8 11)" fill="#20252E"/>
 </g>
</svg>
